src/icons/hds/some/tiktok.svg

<svg xmlns="http://www.w3.org/2000/svg" width="24" height="24" viewBox="0 0 24 24">
  <g fill="none" fill-rule="evenodd">
    <rect width="24" height="24"/>
    <path fill="currentColor" d="M19.0714286,3 L4.92857143,3 C3.86383929,3 3,3.86383929 3,4.92857143 L3,19.0714286 C3,20.1361607 3.86383929,21 4.92857143,21 L19.0714286,21 C20.1361607,21 21,20.1361607 21,19.0714286 L21,4.92857143 C21,3.86383929 20.1361607,3 19.0714286,3 Z M17.1454286,10.8527143 C17.0471407,10.8622651 16.9484641,10.8672704 16.8497143,10.8677143 C15.7665605,10.8678655 14.7563346,10.321902 14.163,9.41571429 L14.163,14.3601429 C14.163,16.378428 12.5268566,18.0145714 10.5085714,18.0145714 C8.49028626,18.0145714 6.85414286,16.378428 6.85414286,14.3601429 C6.85414286,12.3418577 8.49028626,10.7057143 10.5085714,10.7057143 C10.5848571,10.7057143 10.6594286,10.7125714 10.7344286,10.7172857 L10.7344286,12.5181429 C10.6594286,12.5091429 10.5857143,12.4954286 10.5085714,12.4954286 C9.47848147,12.4954286 8.64342857,13.3304815 8.64342857,14.3605714 C8.64342857,15.3906614 9.47848147,16.2257143 10.5085714,16.2257143 C11.5388571,16.2257143 12.4487143,15.414 12.4487143,14.3837143 L12.4667143,5.98628571 L14.1895714,5.98628571 C14.3520305,7.53125778 15.5977872,8.73802245 17.1471429,8.85128571 L17.1471429,10.8527143"/>
  </g>
</svg>

<svg viewBox="0 0 24 24" role="img" xmlns="http://www.w3.org/2000/svg"><g fill="none" fill-rule="evenodd"><path d="M0 0h24v24H0z"/><path d="M19.071 3H4.93A1.93 1.93 0 003 4.929V19.07A1.93 1.93 0 004.929 21H19.07A1.93 1.93 0 0021 19.071V4.93A1.93 1.93 0 0019.071 3zm-1.926 7.853a3.21 3.21 0 01-2.982-1.437v4.944a3.654 3.654 0 11-3.654-3.654c.076 0 .15.007.225.011v1.801c-.075-.009-.148-.023-.225-.023a1.865 1.865 0 000 3.73c1.03 0 1.94-.811 1.94-1.841l.018-8.398h1.723a3.21 3.21 0 002.957 2.865v2.002" fill="currentColor"/></g></svg>
